docs/.vuepress/public/JD/fonts/icomoon.svg

<?xml version="1.0" standalone="no"?>
<!DOCTYPE svg PUBLIC "-//W3C//DTD SVG 1.1//EN" "http://www.w3.org/Graphics/SVG/1.1/DTD/svg11.dtd" >
<svg xmlns="http://www.w3.org/2000/svg">
<metadata>Generated by IcoMoon</metadata>
<defs>
<font id="icomoon" horiz-adv-x="1024">
<font-face units-per-em="1024" ascent="960" descent="-64" />
<missing-glyph horiz-adv-x="1024" />
<glyph unicode="&#x20;" horiz-adv-x="512" d="" />
<glyph unicode="&#xe90f;" glyph-name="camera" d="M304 352c0-114.876 93.124-208 208-208s208 93.124 208 208-93.124 208-208 208-208-93.124-208-208zM960 704h-224c-16 64-32 128-96 128h-256c-64 0-80-64-96-128h-224c-35.2 0-64-28.8-64-64v-576c0-35.2 28.8-64 64-64h896c35.2 0 64 28.8 64 64v576c0 35.2-28.8 64-64 64zM512 68c-156.85 0-284 127.148-284 284 0 156.85 127.15 284 284 284 156.852 0 284-127.15 284-284 0-156.852-127.146-284-284-284zM960 512h-128v64h128v-64z" />
<glyph unicode="&#xe91b;" glyph-name="connection" horiz-adv-x="1280" d="M640 384c105.87 0 201.87-43.066 271.402-112.598l-90.468-90.468c-46.354 46.356-110.356 75.066-180.934 75.066s-134.578-28.71-180.934-75.066l-90.468 90.468c69.532 69.532 165.532 112.598 271.402 112.598zM187.452 452.548c120.88 120.88 281.598 187.452 452.548 187.452s331.668-66.572 452.55-187.452l-90.51-90.508c-96.706 96.704-225.28 149.96-362.040 149.96-136.762 0-265.334-53.256-362.038-149.962l-90.51 90.51zM988.784 825.562c106.702-45.132 202.516-109.728 284.782-191.996v0l-90.508-90.508c-145.056 145.056-337.92 224.942-543.058 224.942-205.14 0-398-79.886-543.058-224.942l-90.51 90.51c82.268 82.266 178.082 146.862 284.784 191.994 110.504 46.738 227.852 70.438 348.784 70.438s238.278-23.7 348.784-70.438zM576 64c0 35.346 28.654 64 64 64s64-28.654 64-64c0-35.346-28.654-64-64-64s-64 28.654-64 64z" />
<glyph unicode="&#xe93a;" glyph-name="cart" d="M384 32c0-53.019-42.981-96-96-96s-96 42.981-96 96c0 53.019 42.981 96 96 96s96-42.981 96-96zM1024 32c0-53.019-42.981-96-96-96s-96 42.981-96 96c0 53.019 42.981 96 96 96s96-42.981 96-96zM1024 448v384h-768c0 35.346-28.654 64-64 64h-192v-64h128l48.074-412.054c-29.294-23.458-48.074-59.5-48.074-99.946 0-70.696 57.308-128 128-128h768v64h-768c-35.346 0-64 28.654-64 64 0 0.218 0.014 0.436 0.016 0.656l831.984 127.344z" />
<glyph unicode="&#xe947;" glyph-name="location" d="M512 960c-176.732 0-320-143.268-320-320 0-320 320-704 320-704s320 384 320 704c0 176.732-143.27 320-320 320zM512 448c-106.040 0-192 85.96-192 192s85.96 192 192 192 192-85.96 192-192-85.96-192-192-192z" />
<glyph unicode="&#xe94d;" glyph-name="history" horiz-adv-x="1088" d="M640 896c247.424 0 448-200.576 448-448s-200.576-448-448-448v96c94.024 0 182.418 36.614 248.902 103.098s103.098 154.878 103.098 248.902c0 94.022-36.614 182.418-103.098 248.902s-154.878 103.098-248.902 103.098c-94.022 0-182.418-36.614-248.902-103.098-51.14-51.138-84.582-115.246-97.306-184.902h186.208l-224-256-224 256h164.57c31.060 217.102 217.738 384 443.43 384zM832 512v-128h-256v320h128v-192z" />
<glyph unicode="&#xe96f;" glyph-name="bubbles3" horiz-adv-x="1152" d="M1088 58.834c0-45.5 26.028-84.908 64-104.184v-15.938c-10.626-1.454-21.472-2.224-32.5-2.224-68.008 0-129.348 28.528-172.722 74.264-26.222-6.982-54.002-10.752-82.778-10.752-159.058 0-288 114.616-288 256s128.942 256 288 256c159.058 0 288-114.616 288-256 0-55.348-19.764-106.592-53.356-148.466-6.824-14.824-10.644-31.312-10.644-48.7zM230.678 738.814c-66.214-53.798-102.678-122.984-102.678-194.814 0-40.298 11.188-79.378 33.252-116.15 22.752-37.92 56.982-72.586 98.988-100.252 30.356-19.992 50.78-51.948 56.176-87.894 1.8-11.984 2.928-24.088 3.37-36.124 7.47 6.194 14.75 12.846 21.88 19.976 24.154 24.152 56.78 37.49 90.502 37.49 5.368 0 10.762-0.336 16.156-1.024 20.948-2.662 42.344-4.016 63.594-4.020v-128c-27.128 0.002-53.754 1.738-79.742 5.042-109.978-109.978-241.25-129.7-368.176-132.596v26.916c68.536 33.578 128 94.74 128 164.636 0 9.754-0.758 19.33-2.164 28.696-115.796 76.264-189.836 192.754-189.836 323.304 0 229.75 229.23 416 512 416 278.458 0 504.992-180.614 511.836-405.52-41.096 18.316-85.84 29.422-132.262 32.578-11.53 56.068-45.402 108.816-98.252 151.756-35.322 28.698-76.916 51.39-123.628 67.444-49.706 17.080-102.76 25.742-157.694 25.742-54.932 0-107.988-8.662-157.694-25.742-46.712-16.054-88.306-38.744-123.628-67.444z" />
<glyph unicode="&#xe971;" glyph-name="user" d="M576 253.388v52.78c70.498 39.728 128 138.772 128 237.832 0 159.058 0 288-192 288s-192-128.942-192-288c0-99.060 57.502-198.104 128-237.832v-52.78c-217.102-17.748-384-124.42-384-253.388h896c0 128.968-166.898 235.64-384 253.388z" />
<glyph unicode="&#xe986;" glyph-name="search" d="M992.262 88.604l-242.552 206.294c-25.074 22.566-51.89 32.926-73.552 31.926 57.256 67.068 91.842 154.078 91.842 249.176 0 212.078-171.922 384-384 384-212.076 0-384-171.922-384-384s171.922-384 384-384c95.098 0 182.108 34.586 249.176 91.844-1-21.662 9.36-48.478 31.926-73.552l206.294-242.552c35.322-39.246 93.022-42.554 128.22-7.356s31.892 92.898-7.354 128.22zM384 320c-141.384 0-256 114.616-256 256s114.616 256 256 256 256-114.616 256-256-114.614-256-256-256z" />
<glyph unicode="&#xe999;" glyph-name="bug" d="M1024 384v64h-193.29c-5.862 72.686-31.786 139.026-71.67 192.25h161.944l70.060 280.24-62.090 15.522-57.94-231.76h-174.68c-0.892 0.694-1.796 1.374-2.698 2.056 6.71 19.502 10.362 40.422 10.362 62.194 0.002 105.76-85.958 191.498-191.998 191.498s-192-85.738-192-191.5c0-21.772 3.65-42.692 10.362-62.194-0.9-0.684-1.804-1.362-2.698-2.056h-174.68l-57.94 231.76-62.090-15.522 70.060-280.24h161.944c-39.884-53.222-65.806-119.562-71.668-192.248h-193.29v-64h193.37c3.802-45.664 15.508-88.812 33.638-127.75h-123.992l-70.060-280.238 62.090-15.524 57.94 231.762h112.354c58.692-78.032 147.396-127.75 246.66-127.75s187.966 49.718 246.662 127.75h112.354l57.94-231.762 62.090 15.524-70.060 280.238h-123.992c18.13 38.938 29.836 82.086 33.636 127.75h193.37z" />
<glyph unicode="&#xe9da;" glyph-name="heart" horiz-adv-x="1088" d="M773.331 896c-100.366 0-186.742-81.645-226.752-166.919-40.040 85.272-126.427 166.919-226.801 166.919-138.367 0-250.665-112.311-250.665-250.688 0-281.474 283.948-355.28 477.464-633.562 182.915 276.559 477.423 361.072 477.423 633.562 0 138.377-112.302 250.688-250.669 250.688z" />
<glyph unicode="&#xe9e3;" glyph-name="tongue" d="M512-64c282.77 0 512 229.23 512 512s-229.23 512-512 512-512-229.23-512-512 229.23-512 512-512zM512 864c229.75 0 416-186.25 416-416s-186.25-416-416-416-416 186.25-416 416 186.25 416 416 416zM256 640c0 35.346 28.654 64 64 64s64-28.654 64-64c0-35.346-28.654-64-64-64s-64 28.654-64 64zM640 640c0 35.346 28.654 64 64 64s64-28.654 64-64c0-35.346-28.654-64-64-64s-64 28.654-64 64zM768 384v-64h-64v-96c0-53.020-42.98-96-96-96s-96 42.98-96 96v96h-256v64h512z" />
<glyph unicode="&#xea0d;" glyph-name="cancel-circle" d="M512 960c-282.77 0-512-229.23-512-512s229.23-512 512-512 512 229.23 512 512-229.23 512-512 512zM512 32c-229.75 0-416 186.25-416 416s186.25 416 416 416 416-186.25 416-416-186.25-416-416-416zM672 704l-160-160-160 160-96-96 160-160-160-160 96-96 160 160 160-160 96 96-160 160 160 160z" />
<glyph unicode="&#xea0f;" glyph-name="cross" d="M1014.662 137.34c-0.004 0.004-0.008 0.008-0.012 0.010l-310.644 310.65 310.644 310.65c0.004 0.004 0.008 0.006 0.012 0.010 3.344 3.346 5.762 7.254 7.312 11.416 4.246 11.376 1.824 24.682-7.324 33.83l-146.746 146.746c-9.148 9.146-22.45 11.566-33.828 7.32-4.16-1.55-8.070-3.968-11.418-7.31 0-0.004-0.004-0.006-0.008-0.010l-310.648-310.652-310.648 310.65c-0.004 0.004-0.006 0.006-0.010 0.010-3.346 3.342-7.254 5.76-11.414 7.31-11.38 4.248-24.682 1.826-33.83-7.32l-146.748-146.748c-9.148-9.148-11.568-22.452-7.322-33.828 1.552-4.16 3.97-8.072 7.312-11.416 0.004-0.002 0.006-0.006 0.010-0.010l310.65-310.648-310.65-310.652c-0.002-0.004-0.006-0.006-0.008-0.010-3.342-3.346-5.76-7.254-7.314-11.414-4.248-11.376-1.826-24.682 7.322-33.83l146.748-146.746c9.15-9.148 22.452-11.568 33.83-7.322 4.16 1.552 8.070 3.97 11.416 7.312 0.002 0.004 0.006 0.006 0.010 0.010l310.648 310.65 310.648-310.65c0.004-0.002 0.008-0.006 0.012-0.008 3.348-3.344 7.254-5.762 11.414-7.314 11.378-4.246 24.684-1.826 33.828 7.322l146.746 146.748c9.148 9.148 11.57 22.454 7.324 33.83-1.552 4.16-3.97 8.068-7.314 11.414z" />
<glyph unicode="&#xea14;" glyph-name="exit" d="M768 320v128h-320v128h320v128l192-192zM704 384v-256h-320v-192l-384 192v832h704v-320h-64v256h-512l256-128v-576h256v192z" />
<glyph unicode="&#xea41;" glyph-name="circle-up" d="M0 448c0-282.77 229.23-512 512-512s512 229.23 512 512-229.23 512-512 512-512-229.23-512-512zM928 448c0-229.75-186.25-416-416-416s-416 186.25-416 416 186.25 416 416 416 416-186.25 416-416zM706.744 290.744l90.512 90.512-285.256 285.254-285.254-285.256 90.508-90.508 194.746 194.744z" />
<glyph unicode="&#xea42;" glyph-name="circle-right" d="M512 960c-282.77 0-512-229.23-512-512s229.23-512 512-512 512 229.23 512 512-229.23 512-512 512zM512 32c-229.75 0-416 186.25-416 416s186.25 416 416 416 416-186.25 416-416-186.25-416-416-416zM354.744 253.256l90.512-90.512 285.254 285.256-285.256 285.254-90.508-90.508 194.744-194.746z" />
<glyph unicode="&#xea43;" glyph-name="circle-down" d="M1024 448c0 282.77-229.23 512-512 512s-512-229.23-512-512 229.23-512 512-512 512 229.23 512 512zM96 448c0 229.75 186.25 416 416 416s416-186.25 416-416-186.25-416-416-416-416 186.25-416 416zM317.256 605.256l-90.512-90.512 285.256-285.254 285.254 285.256-90.508 90.508-194.746-194.744z" />
<glyph unicode="&#xea44;" glyph-name="circle-left" d="M512-64c282.77 0 512 229.23 512 512s-229.23 512-512 512-512-229.23-512-512 229.23-512 512-512zM512 864c229.75 0 416-186.25 416-416s-186.25-416-416-416-416 186.25-416 416 186.25 416 416 416zM669.256 642.744l-90.512 90.512-285.254-285.256 285.256-285.254 90.508 90.508-194.744 194.746z" />
<glyph unicode="&#xea50;" glyph-name="ctrl" d="M287.986 384c8.908 0 17.77-3.698 24.096-10.928l199.918-228.478 199.918 228.478c11.636 13.3 31.856 14.65 45.154 3.010 13.3-11.638 14.648-31.854 3.010-45.154l-224-256c-6.076-6.944-14.854-10.928-24.082-10.928s-18.006 3.984-24.082 10.928l-224 256c-11.638 13.3-10.292 33.516 3.010 45.154 6.070 5.312 13.582 7.918 21.058 7.918z" />
<glyph unicode="&#xea51;" glyph-name="ctrl1" d="M448 672.014c0-8.908-3.698-17.77-10.928-24.096l-228.478-199.918 228.478-199.918c13.3-11.636 14.65-31.856 3.010-45.154-11.638-13.3-31.854-14.648-45.154-3.010l-256 224c-6.944 6.076-10.928 14.854-10.928 24.082s3.984 18.006 10.928 24.082l256 224c13.3 11.638 33.516 10.292 45.154-3.010 5.312-6.070 7.918-13.582 7.918-21.058z" />
<glyph unicode="&#xea52;" glyph-name="ctrl2" d="M576 223.986c0 8.908 3.698 17.77 10.928 24.096l228.478 199.918-228.478 199.918c-13.3 11.636-14.65 31.856-3.010 45.154 11.638 13.3 31.854 14.648 45.154 3.010l256-224c6.944-6.076 10.928-14.854 10.928-24.082s-3.984-18.006-10.928-24.082l-256-224c-13.3-11.638-33.516-10.292-45.154 3.010-5.312 6.070-7.918 13.582-7.918 21.058z" />
<glyph unicode="&#xea96;" glyph-name="twitter" d="M1024 733.6c-37.6-16.8-78.2-28-120.6-33 43.4 26 76.6 67.2 92.4 116.2-40.6-24-85.6-41.6-133.4-51-38.4 40.8-93 66.2-153.4 66.2-116 0-210-94-210-210 0-16.4 1.8-32.4 5.4-47.8-174.6 8.8-329.4 92.4-433 219.6-18-31-28.4-67.2-28.4-105.6 0-72.8 37-137.2 93.4-174.8-34.4 1-66.8 10.6-95.2 26.2 0-0.8 0-1.8 0-2.6 0-101.8 72.4-186.8 168.6-206-17.6-4.8-36.2-7.4-55.4-7.4-13.6 0-26.6 1.4-39.6 3.8 26.8-83.4 104.4-144.2 196.2-146-72-56.4-162.4-90-261-90-17 0-33.6 1-50.2 3 93.2-59.8 203.6-94.4 322.2-94.4 386.4 0 597.8 320.2 597.8 597.8 0 9.2-0.2 18.2-0.6 27.2 41 29.4 76.6 66.4 104.8 108.6z" />
</font></defs></svg>

<svg xmlns="http://www.w3.org/2000/svg"><defs><font id="icomoon" horiz-adv-x="1024"><font-face units-per-em="1024" ascent="960" descent="-64"/><glyph horiz-adv-x="512"/><glyph unicode="" glyph-name="camera" d="M304 352c0-114.876 93.124-208 208-208s208 93.124 208 208-93.124 208-208 208-208-93.124-208-208zm656 352H736c-16 64-32 128-96 128H384c-64 0-80-64-96-128H64c-35.2 0-64-28.8-64-64V64C0 28.8 28.8 0 64 0h896c35.2 0 64 28.8 64 64v576c0 35.2-28.8 64-64 64zM512 68c-156.85 0-284 127.148-284 284 0 156.85 127.15 284 284 284 156.852 0 284-127.15 284-284 0-156.852-127.146-284-284-284zm448 444H832v64h128v-64z"/><glyph unicode="" glyph-name="connection" horiz-adv-x="1280" d="M640 384c105.87 0 201.87-43.066 271.402-112.598l-90.468-90.468C774.58 227.29 710.578 256 640 256s-134.578-28.71-180.934-75.066l-90.468 90.468C438.13 340.934 534.13 384 640 384zm-452.548 68.548C308.332 573.428 469.05 640 640 640s331.668-66.572 452.55-187.452l-90.51-90.508C905.334 458.744 776.76 512 640 512c-136.762 0-265.334-53.256-362.038-149.962l-90.51 90.51zm801.332 373.014c106.702-45.132 202.516-109.728 284.782-191.996l-90.508-90.508C1038.002 688.114 845.138 768 640 768c-205.14 0-398-79.886-543.058-224.942l-90.51 90.51C88.7 715.834 184.514 780.43 291.216 825.562 401.72 872.3 519.068 896 640 896s238.278-23.7 348.784-70.438zM576 64c0 35.346 28.654 64 64 64s64-28.654 64-64c0-35.346-28.654-64-64-64s-64 28.654-64 64z"/><glyph unicode="" glyph-name="cart" d="M384 32c0-53.019-42.981-96-96-96s-96 42.981-96 96 42.981 96 96 96 96-42.981 96-96zm640 0c0-53.019-42.981-96-96-96s-96 42.981-96 96 42.981 96 96 96 96-42.981 96-96zm0 416v384H256c0 35.346-28.654 64-64 64H0v-64h128l48.074-412.054C146.78 396.488 128 360.446 128 320c0-70.696 57.308-128 128-128h768v64H256c-35.346 0-64 28.654-64 64 0 .218.014.436.016.656L1024 448z"/><glyph unicode="" glyph-name="location" d="M512 960c-176.732 0-320-143.268-320-320 0-320 320-704 320-704s320 384 320 704c0 176.732-143.27 320-320 320zm0-512c-106.04 0-192 85.96-192 192s85.96 192 192 192 192-85.96 192-192-85.96-192-192-192z"/><glyph unicode="" glyph-name="history" horiz-adv-x="1088" d="M640 896c247.424 0 448-200.576 448-448S887.424 0 640 0v96c94.024 0 182.418 36.614 248.902 103.098S992 353.976 992 448c0 94.022-36.614 182.418-103.098 248.902S734.024 800 640 800c-94.022 0-182.418-36.614-248.902-103.098-51.14-51.138-84.582-115.246-97.306-184.902H480L256 256 32 512h164.57C227.63 729.102 414.308 896 640 896zm192-384V384H576v320h128V512z"/><glyph unicode="" glyph-name="bubbles3" horiz-adv-x="1152" d="M1088 58.834c0-45.5 26.028-84.908 64-104.184v-15.938a239.589 239.589 0 0 0-32.5-2.224c-68.008 0-129.348 28.528-172.722 74.264C920.556 3.77 892.776 0 864 0 704.942 0 576 114.616 576 256s128.942 256 288 256 288-114.616 288-256c0-55.348-19.764-106.592-53.356-148.466C1091.82 92.71 1088 76.222 1088 58.834zm-857.322 679.98C164.464 685.016 128 615.83 128 544c0-40.298 11.188-79.378 33.252-116.15 22.752-37.92 56.982-72.586 98.988-100.252a127.993 127.993 0 0 0 56.176-87.894 323.6 323.6 0 0 0 3.37-36.124c7.47 6.194 14.75 12.846 21.88 19.976a128.015 128.015 0 0 0 106.658 36.466 507.077 507.077 0 0 1 63.594-4.02v-128a632.554 632.554 0 0 0-79.742 5.042C322.198 23.066 190.926 3.344 64 .448v26.916C132.536 60.942 192 122.104 192 192c0 9.754-.758 19.33-2.164 28.696C74.04 296.96 0 413.45 0 544c0 229.75 229.23 416 512 416 278.458 0 504.992-180.614 511.836-405.52-41.096 18.316-85.84 29.422-132.262 32.578-11.53 56.068-45.402 108.816-98.252 151.756-35.322 28.698-76.916 51.39-123.628 67.444C619.988 823.338 566.934 832 512 832c-54.932 0-107.988-8.662-157.694-25.742-46.712-16.054-88.306-38.744-123.628-67.444z"/><glyph unicode="" glyph-name="user" d="M576 253.388v52.78C646.498 345.896 704 444.94 704 544c0 159.058 0 288-192 288S320 703.058 320 544c0-99.06 57.502-198.104 128-237.832v-52.78C230.898 235.64 64 128.968 64 0h896c0 128.968-166.898 235.64-384 253.388z"/><glyph unicode="" glyph-name="search" d="M992.262 88.604 749.71 294.898c-25.074 22.566-51.89 32.926-73.552 31.926C733.414 393.892 768 480.902 768 576c0 212.078-171.922 384-384 384C171.924 960 0 788.078 0 576s171.922-384 384-384c95.098 0 182.108 34.586 249.176 91.844-1-21.662 9.36-48.478 31.926-73.552L871.396-32.26c35.322-39.246 93.022-42.554 128.22-7.356s31.892 92.898-7.354 128.22zM384 320c-141.384 0-256 114.616-256 256s114.616 256 256 256 256-114.616 256-256-114.614-256-256-256z"/><glyph unicode="" glyph-name="bug" d="M1024 384v64H830.71c-5.862 72.686-31.786 139.026-71.67 192.25h161.944l70.06 280.24-62.09 15.522-57.94-231.76h-174.68c-.892.694-1.796 1.374-2.698 2.056 6.71 19.502 10.362 40.422 10.362 62.194C704 874.262 618.04 960 512 960s-192-85.738-192-191.5c0-21.772 3.65-42.692 10.362-62.194-.9-.684-1.804-1.362-2.698-2.056h-174.68l-57.94 231.76-62.09-15.522 70.06-280.24h161.944C225.074 587.026 199.152 520.686 193.29 448H0v-64h193.37c3.802-45.664 15.508-88.812 33.638-127.75H103.016L32.956-23.988l62.09-15.524 57.94 231.762H265.34C324.032 114.218 412.736 64.5 512 64.5s187.966 49.718 246.662 127.75h112.354l57.94-231.762 62.09 15.524-70.06 280.238H796.994c18.13 38.938 29.836 82.086 33.636 127.75H1024z"/><glyph unicode="" glyph-name="heart" horiz-adv-x="1088" d="M773.331 896c-100.366 0-186.742-81.645-226.752-166.919C506.539 814.353 420.152 896 319.778 896 181.411 896 69.113 783.689 69.113 645.312c0-281.474 283.948-355.28 477.464-633.562C729.492 288.309 1024 372.822 1024 645.312 1024 783.689 911.698 896 773.331 896z"/><glyph unicode="" glyph-name="tongue" d="M512-64c282.77 0 512 229.23 512 512S794.77 960 512 960 0 730.77 0 448 229.23-64 512-64zm0 928c229.75 0 416-186.25 416-416S741.75 32 512 32 96 218.25 96 448s186.25 416 416 416zM256 640c0 35.346 28.654 64 64 64s64-28.654 64-64c0-35.346-28.654-64-64-64s-64 28.654-64 64zm384 0c0 35.346 28.654 64 64 64s64-28.654 64-64c0-35.346-28.654-64-64-64s-64 28.654-64 64zm128-256v-64h-64v-96c0-53.02-42.98-96-96-96s-96 42.98-96 96v96H256v64h512z"/><glyph unicode="" glyph-name="cancel-circle" d="M512 960C229.23 960 0 730.77 0 448S229.23-64 512-64s512 229.23 512 512-229.23 512-512 512zm0-928C282.25 32 96 218.25 96 448s186.25 416 416 416 416-186.25 416-416S741.75 32 512 32zm160 672L512 544 352 704l-96-96 160-160-160-160 96-96 160 160 160-160 96 96-160 160 160 160z"/><glyph unicode="" glyph-name="cross" d="M1014.662 137.34c-.004.004-.008.008-.012.01L704.006 448l310.644 310.65.012.01a31.763 31.763 0 0 1 7.312 11.416c4.246 11.376 1.824 24.682-7.324 33.83L867.904 950.652c-9.148 9.146-22.45 11.566-33.828 7.32a31.826 31.826 0 0 1-11.418-7.31c0-.004-.004-.006-.008-.01L512.002 640 201.354 950.65l-.01.01a31.794 31.794 0 0 1-11.414 7.31c-11.38 4.248-24.682 1.826-33.83-7.32L9.352 803.902C.204 794.754-2.216 781.45 2.03 770.074a31.816 31.816 0 0 1 7.312-11.416c.004-.002.006-.006.01-.01L320.002 448 9.352 137.348l-.008-.01a31.859 31.859 0 0 1-7.314-11.414c-4.248-11.376-1.826-24.682 7.322-33.83L156.1-54.652c9.15-9.148 22.452-11.568 33.83-7.322a31.834 31.834 0 0 1 11.416 7.312c.002.004.006.006.01.01l310.648 310.65 310.648-310.65.012-.008a31.822 31.822 0 0 1 11.414-7.314c11.378-4.246 24.684-1.826 33.828 7.322l146.746 146.748c9.148 9.148 11.57 22.454 7.324 33.83a31.805 31.805 0 0 1-7.314 11.414z"/><glyph unicode="" glyph-name="exit" d="M768 320v128H448v128h320v128l192-192zm-64 64V128H384V-64L0 128v832h704V640h-64v256H128l256-128V192h256v192z"/><glyph unicode="" glyph-name="circle-up" d="M0 448C0 165.23 229.23-64 512-64s512 229.23 512 512-229.23 512-512 512S0 730.77 0 448zm928 0c0-229.75-186.25-416-416-416S96 218.25 96 448s186.25 416 416 416 416-186.25 416-416zM706.744 290.744l90.512 90.512L512 666.51 226.746 381.254l90.508-90.508L512 485.49z"/><glyph unicode="" glyph-name="circle-right" d="M512 960C229.23 960 0 730.77 0 448S229.23-64 512-64s512 229.23 512 512-229.23 512-512 512zm0-928C282.25 32 96 218.25 96 448s186.25 416 416 416 416-186.25 416-416S741.75 32 512 32zM354.744 253.256l90.512-90.512L730.51 448 445.254 733.254l-90.508-90.508L549.49 448z"/><glyph unicode="" glyph-name="circle-down" d="M1024 448c0 282.77-229.23 512-512 512S0 730.77 0 448 229.23-64 512-64s512 229.23 512 512zm-928 0c0 229.75 186.25 416 416 416s416-186.25 416-416S741.75 32 512 32 96 218.25 96 448zm221.256 157.256-90.512-90.512L512 229.49l285.254 285.256-90.508 90.508L512 410.51z"/><glyph unicode="" glyph-name="circle-left" d="M512-64c282.77 0 512 229.23 512 512S794.77 960 512 960 0 730.77 0 448 229.23-64 512-64zm0 928c229.75 0 416-186.25 416-416S741.75 32 512 32 96 218.25 96 448s186.25 416 416 416zm157.256-221.256-90.512 90.512L293.49 448l285.256-285.254 90.508 90.508L474.51 448z"/><glyph unicode="" glyph-name="ctrl" d="M287.986 384c8.908 0 17.77-3.698 24.096-10.928L512 144.594l199.918 228.478c11.636 13.3 31.856 14.65 45.154 3.01 13.3-11.638 14.648-31.854 3.01-45.154l-224-256a32 32 0 0 0-48.164 0l-224 256c-11.638 13.3-10.292 33.516 3.01 45.154A31.875 31.875 0 0 0 287.986 384z"/><glyph unicode="" glyph-name="ctrl1" d="M448 672.014c0-8.908-3.698-17.77-10.928-24.096L208.594 448l228.478-199.918c13.3-11.636 14.65-31.856 3.01-45.154-11.638-13.3-31.854-14.648-45.154-3.01l-256 224a32 32 0 0 0 0 48.164l256 224c13.3 11.638 33.516 10.292 45.154-3.01A31.875 31.875 0 0 0 448 672.014z"/><glyph unicode="" glyph-name="ctrl2" d="M576 223.986c0 8.908 3.698 17.77 10.928 24.096L815.406 448 586.928 647.918c-13.3 11.636-14.65 31.856-3.01 45.154 11.638 13.3 31.854 14.648 45.154 3.01l256-224a32 32 0 0 0 0-48.164l-256-224c-13.3-11.638-33.516-10.292-45.154 3.01A31.875 31.875 0 0 0 576 223.986z"/><glyph unicode="" glyph-name="twitter" d="M1024 733.6c-37.6-16.8-78.2-28-120.6-33 43.4 26 76.6 67.2 92.4 116.2-40.6-24-85.6-41.6-133.4-51C824 806.6 769.4 832 709 832c-116 0-210-94-210-210 0-16.4 1.8-32.4 5.4-47.8-174.6 8.8-329.4 92.4-433 219.6-18-31-28.4-67.2-28.4-105.6 0-72.8 37-137.2 93.4-174.8-34.4 1-66.8 10.6-95.2 26.2V537c0-101.8 72.4-186.8 168.6-206-17.6-4.8-36.2-7.4-55.4-7.4-13.6 0-26.6 1.4-39.6 3.8 26.8-83.4 104.4-144.2 196.2-146-72-56.4-162.4-90-261-90-17 0-33.6 1-50.2 3C93 34.6 203.4 0 322 0c386.4 0 597.8 320.2 597.8 597.8 0 9.2-.2 18.2-.6 27.2 41 29.4 76.6 66.4 104.8 108.6z"/></font></defs></svg>
